X:143
T:Scaramouch, The
M:C
L:1/8
B:Thompson's Compleat Collection of 200 Favourite Country Dances, vol. 1 (London, 1757)
Z:Transcribed and edited by Flynn Titford-Mock, 2007
Z:abc's:AK/Fiddler's Companion
K:D
(D/E/F/G/) A>D B>DA>D|(FG/A/) (Bc/d/) B2E2|(D/E/F/G/) A>D B>DA>D|(Bc/d/) (e/f/g/) f2 d2:|
|:fdeA fdeA|(F/G/A) (B/c/d) B2 E>g|fdeA fdeA|(B/c/d) (e/f/g) f2 d2:|

